src/icons/mathematica.svg

<svg width="23" height="24" viewBox="0 0 23 24" fill="none" xmlns="http://www.w3.org/2000/svg">
<path d="M11.498 1.52497L11.425 1.54997L10.965 2.34397L10.511 3.10697L9.293 5.19597H9.276L5.42 3.49997L5.32 3.45297H5.302V3.54497L5.327 3.70797V3.79397L5.459 5.02097V5.10297L5.491 5.35497V5.43697L5.711 7.57397V7.64897L5.729 7.73097V7.79097L3.38 8.29697L3.34 8.31197L2.884 8.41197L2.859 8.42197H2.816L1.721 8.66697L1.681 8.67397L1.511 8.70897V8.79097L1.529 8.80097L3.388 10.887L3.44 10.94L3.555 11.072L4.359 11.98V11.986L4.306 12.036L4.086 12.292L1.522 15.168L1.512 15.175V15.257L1.583 15.263L1.878 15.337L3.575 15.704V15.71L5.715 16.181H5.729V16.228L5.694 16.48V16.56L5.647 16.972V17.054L5.612 17.299V17.381L5.566 17.793V17.873L5.516 18.282V18.362L5.48 18.607V18.689L5.434 19.101V19.183L5.384 19.59V19.672L5.352 19.92V20.002L5.302 20.409V20.513H5.339L8.981 18.913L9.275 18.778H9.293L9.47 19.09L10.009 20.002L10.024 20.034L10.878 21.499L11.038 21.761L11.442 22.455L11.449 22.477H11.541L11.546 22.455L11.563 22.43L12.123 21.484L12.138 21.441L12.737 20.409L13.053 19.869L13.698 18.779L13.748 18.791L17.653 20.513H17.688V20.428L17.55 19.108V19.026L17.518 18.781V18.7L17.483 18.456V18.371L17.45 18.126V18.046L17.418 17.801V17.719L17.386 17.474V17.389L17.351 17.145V17.063L17.319 16.818V16.736L17.286 16.491V16.406L17.261 16.236V16.184L18.893 15.829L18.936 15.822L19.394 15.715H19.422V15.705L19.652 15.655L19.682 15.645H19.724L20.106 15.555L20.131 15.545H20.174L20.368 15.495H20.401L21.416 15.265L21.486 15.258V15.193L21.471 15.18L20.281 13.838L20.253 13.811L20.056 13.591L18.628 11.987V11.981L18.923 11.657L19.323 11.2L21.471 8.79197L21.486 8.78197V8.71697L21.451 8.70997L20.163 8.42997L19.791 8.34497L19.744 8.33497L17.263 7.79097V7.74597L17.695 3.48197V3.46197H17.653L17.351 3.59597L17.341 3.61097H17.316L14.01 5.05997L13.713 5.19497H13.698L11.67 1.71197L11.571 1.56697L11.557 1.52197L11.498 1.52497ZM11.496 2.63797L12.862 4.96197L13.202 5.55297L13.194 5.57797L12.014 7.08997L11.496 7.74997L11.485 7.73897L11.227 7.40497L11.187 7.35497L9.79 5.56797L9.82 5.50497L11.198 3.13897L11.485 2.64897L11.496 2.63797ZM8.205 7.39697L9.191 7.75297L10.089 8.06497L10.137 8.08597L11.19 8.45797L11.202 11.544L10.84 11.427L10.17 11.203L10.089 11.165L8.584 10.664L8.293 10.564L8.283 10.31L8.25 9.11397L8.24 8.82697L8.226 7.93397L8.212 7.63597L8.205 7.39697ZM14.788 7.39697L14.776 7.62497L14.748 8.52497L14.741 8.82697L14.709 10.302L14.699 10.564L14.362 10.682L13.628 10.926L12.858 11.183L12.145 11.427L11.791 11.544L11.801 8.45797L13.433 7.88097L14.788 7.39697ZM5.921 8.36997L6.073 8.58997L7.521 10.64L4.913 11.607L4.863 11.622L2.892 9.40997L2.612 9.09797L2.615 9.08797L2.729 9.06997L3.154 8.96997L3.294 8.94797L3.63 8.87097L3.672 8.86097L5.921 8.36997ZM17.067 8.37297L20.351 9.08597L20.381 9.09597L20.358 9.12197L18.404 11.313L18.128 11.625L18.035 11.59L15.472 10.64L15.946 9.95797L16.099 9.74297L17.067 8.37297ZM8.13 11.147L8.282 11.207L9.052 11.459L9.765 11.704L10.51 11.952L11 12.119L10.935 12.211L9.212 14.544L8.197 14.243L8.115 14.225L8.08 14.21L6.179 13.65L8.098 11.153L8.13 11.147ZM14.86 11.147L14.893 11.153L16.68 13.481L16.812 13.651L16.685 13.686L16.652 13.701L14.457 14.342L14.351 14.375L13.787 14.545L13.77 14.542L12.716 13.102L12.542 12.862L11.996 12.136L11.988 12.119L12.458 11.959L13.226 11.704L13.94 11.46L14.709 11.208L14.86 11.147ZM11.491 12.483L11.513 12.498L12.893 14.37L12.925 14.42L13.268 14.886L13.276 14.916L13.188 15.034L12.766 15.662L12.719 15.737L12.474 16.08L11.504 17.51L11.491 17.517L10.311 15.797L10.216 15.637L9.722 14.928L9.715 14.892L11.332 12.7L11.339 12.69L11.491 12.483ZM9.04 15.31L9.047 15.537L9.057 15.884L9.082 17.246L9.107 17.937L9.1 18.192L8.86 18.299L5.997 19.555L6.03 19.183L6.062 18.928L6.079 18.701L6.11 18.444L6.147 18.037L6.192 17.618L6.21 17.388L6.242 17.136L6.274 16.725L6.324 16.31L6.337 16.17L7.792 15.714L7.795 15.699L8.097 15.601L9.04 15.31ZM13.949 15.31L15.194 15.7V15.714L15.506 15.814L16.651 16.175L16.673 16.405L16.704 16.66L16.747 17.069L16.787 17.488L16.804 17.718L16.836 17.97L16.868 18.381L16.911 18.706L16.988 19.555L16.911 19.515L13.886 18.192L13.881 17.888L13.941 15.519L13.949 15.31Z" fill="#F44336"/>
<path d="M11.498 1.52497L11.425 1.54997L10.965 2.34397L10.511 3.10697L9.293 5.19597H9.276L5.42 3.49997L5.32 3.45297H5.302V3.54497L5.327 3.70797V3.79397L5.459 5.02097V5.10297L5.491 5.35497V5.43697L5.711 7.57397V7.64897L5.729 7.73097V7.79097L3.38 8.29697L3.34 8.31197L2.884 8.41197L2.859 8.42197H2.816L1.721 8.66697L1.681 8.67397L1.511 8.70897V8.79097L1.529 8.80097L3.388 10.887L3.44 10.94L3.555 11.072L4.359 11.98V11.986L4.306 12.036L4.086 12.292L1.522 15.168L1.512 15.175V15.257L1.583 15.263L1.878 15.337L3.575 15.704V15.71L5.715 16.181H5.729V16.228L5.694 16.48V16.56L5.647 16.972V17.054L5.612 17.299V17.381L5.566 17.793V17.873L5.516 18.282V18.362L5.48 18.607V18.689L5.434 19.101V19.183L5.384 19.59V19.672L5.352 19.92V20.002L5.302 20.409V20.513H5.339L8.981 18.913L9.275 18.778H9.293L9.47 19.09L10.009 20.002L10.024 20.034L10.878 21.499L11.038 21.761L11.442 22.455L11.449 22.477H11.541L11.546 22.455L11.563 22.43L12.123 21.484L12.138 21.441L12.737 20.409L13.053 19.869L13.698 18.779L13.748 18.791L17.653 20.513H17.688V20.428L17.55 19.108V19.026L17.518 18.781V18.7L17.483 18.456V18.371L17.45 18.126V18.046L17.418 17.801V17.719L17.386 17.474V17.389L17.351 17.145V17.063L17.319 16.818V16.736L17.286 16.491V16.406L17.261 16.236V16.184L18.893 15.829L18.936 15.822L19.394 15.715H19.422V15.705L19.652 15.655L19.682 15.645H19.724L20.106 15.555L20.131 15.545H20.174L20.368 15.495H20.401L21.416 15.265L21.486 15.258V15.193L21.471 15.18L20.281 13.838L20.253 13.811L20.056 13.591L18.628 11.987V11.981L18.923 11.657L19.323 11.2L21.471 8.79197L21.486 8.78197V8.71697L21.451 8.70997L20.163 8.42997L19.791 8.34497L19.744 8.33497L17.263 7.79097V7.74597L17.695 3.48197V3.46197H17.653L17.351 3.59597L17.341 3.61097H17.316L14.01 5.05997L13.713 5.19497H13.698L11.67 1.71197L11.571 1.56697L11.557 1.52197L11.498 1.52497ZM11.496 2.63797L12.862 4.96197L13.202 5.55297L13.194 5.57797L12.014 7.08997L11.496 7.74997L11.485 7.73897L11.227 7.40497L11.187 7.35497L9.79 5.56797L9.82 5.50497L11.198 3.13897L11.485 2.64897L11.496 2.63797ZM8.205 7.39697L9.191 7.75297L10.089 8.06497L10.137 8.08597L11.19 8.45797L11.202 11.544L10.84 11.427L10.17 11.203L10.089 11.165L8.584 10.664L8.293 10.564L8.283 10.31L8.25 9.11397L8.24 8.82697L8.226 7.93397L8.212 7.63597L8.205 7.39697ZM14.788 7.39697L14.776 7.62497L14.748 8.52497L14.741 8.82697L14.709 10.302L14.699 10.564L14.362 10.682L13.628 10.926L12.858 11.183L12.145 11.427L11.791 11.544L11.801 8.45797L13.433 7.88097L14.788 7.39697ZM5.921 8.36997L6.073 8.58997L7.521 10.64L4.913 11.607L4.863 11.622L2.892 9.40997L2.612 9.09797L2.615 9.08797L2.729 9.06997L3.154 8.96997L3.294 8.94797L3.63 8.87097L3.672 8.86097L5.921 8.36997ZM17.067 8.37297L20.351 9.08597L20.381 9.09597L20.358 9.12197L18.404 11.313L18.128 11.625L18.035 11.59L15.472 10.64L15.946 9.95797L16.099 9.74297L17.067 8.37297ZM8.13 11.147L8.282 11.207L9.052 11.459L9.765 11.704L10.51 11.952L11 12.119L10.935 12.211L9.212 14.544L8.197 14.243L8.115 14.225L8.08 14.21L6.179 13.65L8.098 11.153L8.13 11.147ZM14.86 11.147L14.893 11.153L16.68 13.481L16.812 13.651L16.685 13.686L16.652 13.701L14.457 14.342L14.351 14.375L13.787 14.545L13.77 14.542L12.716 13.102L12.542 12.862L11.996 12.136L11.988 12.119L12.458 11.959L13.226 11.704L13.94 11.46L14.709 11.208L14.86 11.147ZM11.491 12.483L11.513 12.498L12.893 14.37L12.925 14.42L13.268 14.886L13.276 14.916L13.188 15.034L12.766 15.662L12.719 15.737L12.474 16.08L11.504 17.51L11.491 17.517L10.311 15.797L10.216 15.637L9.722 14.928L9.715 14.892L11.332 12.7L11.339 12.69L11.491 12.483ZM9.04 15.31L9.047 15.537L9.057 15.884L9.082 17.246L9.107 17.937L9.1 18.192L8.86 18.299L5.997 19.555L6.03 19.183L6.062 18.928L6.079 18.701L6.11 18.444L6.147 18.037L6.192 17.618L6.21 17.388L6.242 17.136L6.274 16.725L6.324 16.31L6.337 16.17L7.792 15.714L7.795 15.699L8.097 15.601L9.04 15.31ZM13.949 15.31L15.194 15.7V15.714L15.506 15.814L16.651 16.175L16.673 16.405L16.704 16.66L16.747 17.069L16.787 17.488L16.804 17.718L16.836 17.97L16.868 18.381L16.911 18.706L16.988 19.555L16.911 19.515L13.886 18.192L13.881 17.888L13.941 15.519L13.949 15.31Z" stroke="#F44336" stroke-width="0.775" stroke-linejoin="round"/>
</svg>

<svg viewBox="0 0 23 24" xmlns="http://www.w3.org/2000/svg"><path d="m11.498 1.525-.073.025-.46.794-.454.763-1.218 2.089h-.017L5.42 3.5l-.1-.047h-.018v.092l.025.163v.086l.132 1.227v.082l.032.252v.082l.22 2.137v.075l.018.082v.06l-2.349.506-.04.015-.456.1-.025.01h-.043l-1.095.245-.04.007-.17.035v.082l.018.01 1.859 2.086.052.053.115.132.804.908v.006l-.053.05-.22.256-2.564 2.876-.01.007v.082l.071.006.295.074 1.697.367v.006l2.14.471h.014v.047l-.035.252v.08l-.047.412v.082l-.035.245v.082l-.046.412v.08l-.05.409v.08l-.036.245v.082l-.046.412v.082l-.05.407v.082l-.032.248v.082l-.05.407v.104h.037l3.642-1.6.294-.135h.018l.177.312.539.912.015.032.854 1.465.16.262.404.694.007.022h.092l.005-.022.017-.025.56-.946.015-.043.599-1.032.316-.54.645-1.09.05.012 3.905 1.722h.035v-.085l-.138-1.32v-.082l-.032-.245V18.7l-.035-.244v-.085l-.033-.245v-.08l-.032-.245v-.082l-.032-.245v-.085l-.035-.244v-.082l-.032-.245v-.082l-.033-.245v-.085l-.025-.17v-.052l1.632-.355.043-.007.458-.107h.028v-.01l.23-.05.03-.01h.042l.382-.09.025-.01h.043l.194-.05h.033l1.015-.23.07-.007v-.065l-.015-.013-1.19-1.342-.028-.027-.197-.22-1.428-1.604v-.006l.295-.324.4-.457 2.148-2.408.015-.01v-.065l-.035-.007-1.288-.28-.372-.085-.047-.01-2.481-.544v-.045l.432-4.264v-.02h-.042l-.302.134-.01.015h-.025L14.01 5.06l-.297.135h-.015L11.67 1.712l-.099-.145-.014-.045zm-.002 1.113 1.366 2.324.34.591-.008.025-1.18 1.512-.518.66-.011-.011-.258-.334-.04-.05L9.79 5.568l.03-.063 1.378-2.366.287-.49zm4.91 2.04-.008.024-.169.226-.537.066zm-9.818.004.052.02.677.299H6.82l-.224-.299zM16.933 5l-.123 1.248-.113-.927.225-.308zm-9.26.157.053.023.705.31-.758-.175zm7.387.115.02.169-1.317.403.002-.003.16-.072 1.015-.444zM9.655 6.39l.944 1.204v.01l-1.13-.403zm3.55.171.209.683-.233.083-.09.022-.7.255.006-.022.777-.981zm-5 .836.986.356.898.312.048.021 1.053.372.012 3.086-.362-.117-.67-.224-.081-.038-.736-.245-.769-.256-.291-.1-.01-.254-.033-1.196-.01-.287-.014-.893-.014-.298zm6.583 0-.012.228-.028.9-.007.302-.032 1.475-.01.262-.337.118-.734.244-.77.257-.713.244-.354.117.01-3.086 1.632-.577zm.584.437.09.735.79-.096-.915 1.302-.017.006.01-.183.018-.878zm-9.451.536.152.22 1.448 2.05-2.608.967-.05.015L2.892 9.41l-.28-.312.003-.01.114-.018.425-.1.14-.022.336-.077.042-.01zm11.146.003 3.284.713.03.01-.023.026-1.954 2.191-.276.312-.093-.035-2.563-.95.474-.682.153-.215zm-10.295.15h.861l.035 1.258-.013-.006-.763-1.078zm1.358 2.624.152.06.77.252.713.245.745.248.49.167-.065.092-1.723 2.333-1.015-.301-.082-.018-.035-.015-1.901-.56.937-1.22.982-1.277zm6.73 0 .033.006 1.787 2.328.132.17-.127.035-.033.015-2.195.641-.106.033-.564.17-.017-.003-1.054-1.44-.174-.24-.546-.726-.008-.017.47-.16.768-.255.714-.244.769-.252zm-7.765.305-.008.02-.404.524-.291-.292.657-.245zm8.802 0 .042.008.579.212.713.27-.66.394-.375-.48-.03-.042-.262-.341zm-10.843.75-.67.668.355-.397.206-.23zm12.91.016.068.025.045.043.554.627.043.042.203.229-.255.134zm-6.473.265.022.015 1.38 1.872.032.05.343.466.008.03-.088.118-.422.628-.047.075-.245.343-.97 1.43-.013.007-1.18-1.72-.095-.16-.494-.709-.007-.036 1.617-2.192.007-.01zm7.827 1.194.566.633.063.082-.273-.092-.036-.013zm-15.785.148.298.299-.637.218-.153.05.038-.057zm13.225.47-.855.449.346.659-.185-.057-.27-.088-1.092-.349.012-.01zm-9.687.255 1.222.356-.006.008-.458.145-.443.134-.032.01-.49.157zm-2.765.049.318.319 2.007.517-.567.18-.055.005-2.103-.47-.744-.156.007-.006zm14.966.205.548.187v.003l-.457.1-.043.014-1.07.23zM9.04 15.31l.007.227.01.347.025 1.362.025.691-.007.255-.24.107-2.863 1.256.033-.372.032-.255.017-.227.031-.257.037-.407.045-.419.018-.23.032-.252.032-.411.05-.415.013-.14 1.455-.456.003-.015.302-.098zm4.909 0 1.245.39v.014l.312.1 1.145.361.022.23.031.255.043.409.04.419.017.23.032.252.032.411.043.325.077.849-.077-.04-3.025-1.323-.005-.304.06-2.369zm-4.295.616.014.008.068.107.599.874-.639.532-.035-1.439zm3.67 0h.008l-.005.06-.02.678-.004.214-.48-.222zm-2.888 3.605.763.916.001.37-.017-.007-.025-.05-.464-.79-.012-.018zm1.53.61.184.083-.343.586-.018.007.002-.531z" fill="#f44336" fill-rule="evenodd" stroke="#f44336" stroke-linejoin="round" stroke-width=".775"/></svg>
